src/lib/packages/icons/src/assets/filled/tennis-ball.svg

<svg width="24" height="24" viewBox="0 0 24 24" fill="none" xmlns="http://www.w3.org/2000/svg">
<path d="M11.2 21.96C6.32 21.57 2.42999 17.68 2.03999 12.8C2.05999 12.8 2.07 12.8 2.09 12.8C2.39 12.76 2.69 12.75 3 12.75C7.55 12.75 11.25 16.45 11.25 21C11.25 21.31 11.23 21.61 11.2 21.91C11.2 21.93 11.2 21.94 11.2 21.96ZM12.81 2.09003C12.77 2.39003 12.76 2.69003 12.76 3.00003C12.76 7.55003 16.46 11.25 21.01 11.25C21.32 11.25 21.62 11.23 21.92 11.2C21.94 11.2 21.95 11.2 21.97 11.2C21.58 6.32003 17.69 2.43002 12.81 2.04002C12.81 2.06002 12.81 2.07003 12.81 2.09003ZM21.01 12.75C15.63 12.75 11.26 8.38003 11.26 3.00003C11.26 2.67003 11.28 2.35003 11.32 2.03003C6.35001 2.37003 2.39 6.33003 2.05 11.3C2.37 11.27 2.69 11.24 3.02 11.24C8.4 11.24 12.77 15.61 12.77 20.99C12.77 21.32 12.75 21.64 12.71 21.96C17.68 21.62 21.64 17.66 21.98 12.69C21.66 12.72 21.34 12.75 21.01 12.75Z" fill="currentColor"/>
</svg>

<svg xmlns="http://www.w3.org/2000/svg" width="24" height="24" fill="none"><path fill="currentColor" d="M11.2 21.96a10 10 0 0 1-9.16-9.16h.05c.3-.04.6-.05.91-.05 4.55 0 8.25 3.7 8.25 8.25 0 .31-.02.61-.05.91v.05Zm1.61-19.87c-.04.3-.05.6-.05.91 0 4.55 3.7 8.25 8.25 8.25.31 0 .61-.02.91-.05h.05a10 10 0 0 0-9.16-9.16v.05Zm8.2 10.66c-5.38 0-9.75-4.37-9.75-9.75 0-.33.02-.65.06-.97-4.97.34-8.93 4.3-9.27 9.27.32-.03.64-.06.97-.06 5.38 0 9.75 4.37 9.75 9.75 0 .33-.02.65-.06.97 4.97-.34 8.93-4.3 9.27-9.27-.32.03-.64.06-.97.06Z"/></svg>
